X:1
T:Title
%%score { ( 1 3 ) | ( 2 4 ) }
L:1/8
Q:1/4=81
M:6/8
K:F
V:1 treble nm="Grand Piano"
V:3 treble 
V:2 bass 
V:4 bass 
V:1
 A_A=A dcA | [EG][DF][EG] [FA]3 | [FB][Fd][Fd] c>BA | cBA [EG]3 | A_A=A dcA | %5
w: Charles~H.~Gabriel * * * * *|||||
 [B,EG][A,DF][CEG] [CFA]3 | [DFG][Fd]G FcF | E[CEA][B,EG] [A,CF]3 | %8
w: |||
 [CAc]>[CGB][CFA] [CAc]>[CGB][CFA] | [Fd][Fd]>F c3 | [Gc]>GG [Fd]2 [=B,FG] | c6 | cAG F2 G/A/ | %13
w: |||||
 [FB][FB][Fc] [Fd]2 [Fd] | [Fc]<[Fc][EB] [FA]2 [CG] | [A,CF]6 |] %16
w: |||
V:2
 [F,CF][F,=B,F][F,CF] [F,_B,F][F,A,F][F,CF] | [C,B,][D,A,][C,C] [F,C]3 | %2
 [D,B,][B,,B,][B,,B,][K:treble] [F,A,F]>[F,DF][F,CF] | [A,CF][G,CE][K:bass][F,CF] [C,C]3 | %4
 [F,CF][F,=B,F][F,CF] [F,_B,F][F,A,F][F,CF] | C,D,C, F,3 | %6
 B,,[B,,B,][K:treble][B,DF] [A,C][A,CF][K:bass][F,A,C] | [C,G,C]C,C, F,3 | F,>F,F, F,>F,F, | %9
 [B,,B,][B,,B,]>[D,B,] [F,A,F]3 | [E,C]>[E,C][E,C] [D,=B,]2 D, | z A,B, DC[C,B,] | %12
 [F,A,F][F,CF][F,B,C] [F,A,C]2 [F,B,C]/[F,CF]/ | [D,B,][D,B,][C,A,] [B,,B,]2 [=B,,_A,] | %14
 [C,A,]<[C,A,][C,G,] [C,C]2 [C,B,] | [F,,F,]6 |] %16
V:3
 x6 | x6 | x6 | x6 | x6 | x6 | x6 | x6 | x6 | x6 | x6 | [CE]FG BA[Ec] | x6 | x6 | x6 | x6 |] %16
V:4
 x6 | x6 | x3[K:treble] x3 | x2[K:bass] x4 | x6 | x6 | x2[K:treble] x3[K:bass] x | x6 | x6 | x6 | %10
 x6 | C,6 | x6 | x6 | x6 | x6 |] %16

